X:35
T: Graf und Nonne (Die Nonne)
N: Q0155h
O: Mitteleuropa, Oesterreich / Italien, Suedtirol, Sterzing, Pfitsch,
R: Ballade, Standesunterschied, Werbung, Liebe
M: 6/8
L: 1/16
K: G
D2 | B4G2G2F2G2 | A2A2z6
DD | A4A2A2G2A2 | B4z6
B2 | d4c2A4c2 | c4B2G4
B2 | A4F2B4A2 | G4z6
B2 | d4c2A4c2 | c4B2G4
B2 | A4F2B4A2 | G4z6

@@@ Tune index: 1745
